assets/images/script/p-5-e1.svg

<svg fill="none" height="240" viewBox="0 0 389 240" width="389" xmlns="http://www.w3.org/2000/svg"><path d="m69.5115 138.996c0-3.284 3.3349 4.502 6.5605 6.437 24.015 14.409 61.218 2.405 83.429-9.531 23.418-12.584 32.895-27.665 9.532-46.1876-14.377-11.3975-33.273-14.6531-51.123-14.9776-21.3196-.3877-43.2449 1.9007-64.2426 5.5702-16.0003 2.7962-63.43047 13.9345-47.40866 11.2642 1.60133-.2669 4.36746-3.7433 5.63206-4.6419 6.9305-4.9242 13.6859-9.7029 20.2385-15.1633 27.4707-22.8923 58.0597-46.7088 91.9707-58.9204 24.237-8.72822 64.22-18.42951 84.79 3.5897 9.09 9.7296 8.318 22.0601 5.014 34.0401-4.925 17.8511-13.338 34.4247-17.763 52.4836-9.176 37.449-13.867 88.251 13.987 119.46 18.115 20.296 50.638 19.041 66.843-2.723 19.031-25.561 24.311-71.568 3.342-97.427-9.278-11.441-21.409-20.478-34.783-26.4892-.064-.0288-11.759-4.3237-11.759-4.8275 0-2.5376 4.951 1.114 7.427 1.671 7.071 1.5912 14.309 2.2044 21.538 2.5376 35.363 1.6296 70.668 4.4525 106.081 4.7037 3.931.0279 9.186.0122 13.245.2474 1.426.083 5.397.012 4.209.805-.512.341-1.996.062-2.6.062" stroke="#000" stroke-linecap="round" stroke-width="5"/></svg>

<svg width="389" height="240" viewBox="0 0 389 240" fill="none" xmlns="http://www.w3.org/2000/svg">
<path d="M69.5115 138.996C69.5115 135.712 72.8464 143.498 76.072 145.433C100.087 159.842 137.29 147.838 159.501 135.902C182.919 123.318 192.396 108.237 169.033 89.7144C154.656 78.3169 135.76 75.0613 117.91 74.7368C96.5904 74.3491 74.6651 76.6375 53.6674 80.307C37.6671 83.1032 -9.76307 94.2415 6.25874 91.5712C7.86007 91.3043 10.6262 87.8279 11.8908 86.9293C18.8213 82.0051 25.5767 77.2264 32.1293 71.766C59.6 48.8737 90.189 25.0572 124.1 12.8456C148.337 4.11738 188.32 -5.58391 208.89 16.4353C217.98 26.1649 217.208 38.4954 213.904 50.4754C208.979 68.3265 200.566 84.9001 196.141 102.959C186.965 140.408 182.274 191.21 210.128 222.419C228.243 242.715 260.766 241.46 276.971 219.696C296.002 194.135 301.282 148.128 280.313 122.269C271.035 110.828 258.904 101.791 245.53 95.7798C245.466 95.751 233.771 91.4561 233.771 90.9523C233.771 88.4147 238.722 92.0663 241.198 92.6233C248.269 94.2145 255.507 94.8277 262.736 95.1609C298.099 96.7905 333.404 99.6134 368.817 99.8646C372.748 99.8925 378.003 99.8768 382.062 100.112C383.488 100.195 387.459 100.124 386.271 100.917C385.759 101.258 384.275 100.979 383.671 100.979" stroke="black" stroke-width="5" stroke-linecap="round"/>
</svg>
